X: 6211
T: Carlisle Bay
R: waltz
M: 3/4
K: Dmajor
FG|:A2 FG A2|g2f3e|d2F2B2|A2d3c|
B2EF GA|BA B/c/d ef|dF BF AB|A3A FG|
A2 FG AB/c/|dc de fg|fa af dB|A2d3c|
B2GF GB|cB cd ef|d2 A2 fe|1 d2F2G2:|2 d2e3d||
K:F#M
c2F3E|FG AB cf|e2B2BA|GB E2 EF|
D2 DE FG|A3B cd|c2f3c|^e2f2g2|
af cA FE|FG AB cf|e2B2BA|GB E2 EF|
D2 DE FG|A3B cd|c2cB cB|dc BA F=G||

